X: 7795
T:Senpolska e. Harald Johansson, N\"asteln
D:\"O S'slag CD
R:Senpolska
O:Sweden
M:3/4
Q:1/4=186
A:J\"amtland
K:DDor
a>g ba g>e| fe/f/ af e>^c| \
d>e fa/f/ e^c|de/f/ ed ^cA|\
a>g ba g>e| fe/f/ af e>^c|
d>e fa/f/ e^c|de/f/ d4 ::\
K:Dm
A>B AG F>E| D>^c df e>c|
A>B AG F>E| D/E/F E4|\
A>B AG F>E| D>^c df e>c|\
A>B AG FE/D/| ED/^C/ D4 :|
